ncols         90
nrows         90
xllcorner     398650
yllcorner     304650
cellsize      300
NODATA_value  -9999
-9999 -9999 169.9 170.2 170.1 169.6 168.7 167.5 166.0 164.0 161.8 159.2 156.3 153.0 149.5 145.6 141.5 137.2 132.6 127.7 122.7 117.5 112.1 106.6 101.0 95.2 89.4 83.6 77.7 71.8 65.9 60.0 54.2 48.5 42.9 37.5 32.1 27.0 22.0 17.3 12.7 8.5 4.4 0.7 0.0 0.0 0.0 0.0 0.0 0.0 0.0 0.0 0.0 0.0 0.0 0.0 0.0 0.0 0.0 0.0 0.0 0.0 0.0 0.0 0.9 4.7 8.7 13.0 17.6 22.3 27.3 32.5 37.8 43.3 48.9 54.6 60.4 66.3 72.1 78.0 83.9 89.8 95.6 101.3 107.0 112.5 117.8 123.0 128.1 132.9
-9999 -9999 170.1 170.4 170.3 169.8 168.9 167.6 165.9 163.9 161.4 158.7 155.5 152.1 148.3 144.2 139.8 135.1 130.2 125.0 119.7 114.1 108.3 102.4 96.4 90.3 84.1 77.8 71.5 65.2 58.9 52.6 46.4 40.3 34.3 28.5 22.8 17.3 12.0 6.9 2.0 0.0 0.0 0.0 0.0 0.0 0.0 0.0 0.0 0.0 0.0 0.0 0.0 0.0 0.0 0.0 0.0 0.0 0.0 0.0 0.0 0.0 0.0 0.0 0.0 0.0 0.0 2.4 7.2 12.3 17.6 23.1 28.9 34.7 40.7 46.8 53.0 59.3 65.6 71.9 78.2 84.5 90.7 96.8 102.8 108.7 114.5 120.0 125.4 130.5
167.6 168.7 169.4 169.7 169.6 169.0 168.1 166.7 164.9 162.8 160.2 157.2 153.9 150.2 146.2 141.9 137.2 132.2 127.0 121.5 115.8 109.9 103.8 97.6 91.2 84.6 78.0 71.4 64.7 58.0 51.3 44.7 38.1 31.6 25.2 19.0 13.0 7.1 1.5 0.0 0.0 0.0 0.0 0.0 0.0 0.0 0.0 0.0 0.0 0.0 0.0 0.0 0.0 0.0 0.0 0.0 0.0 0.0 0.0 0.0 0.0 0.0 0.0 0.0 0.0 0.0 0.0 0.0 0.0 1.9 7.5 13.4 19.4 25.7 32.0 38.5 45.1 51.7 58.4 65.1 71.8 78.5 85.1 91.6 98.0 104.2 110.3 116.2 121.9 127.4
166.0 167.1 167.9 168.2 168.1 167.5 166.5 165.0 163.2 160.9 158.2 155.0 151.5 147.7 143.4 138.8 133.9 128.7 123.2 117.4 111.4 105.1 98.7 92.1 85.3 78.5 71.5 64.5 57.4 50.4 43.3 36.3 29.4 22.5 15.8 9.3 2.9 0.0 0.0 0.0 0.0 0.0 0.0 0.0 0.0 0.0 0.0 0.0 0.0 0.0 0.0 0.0 0.0 0.0 0.0 0.0 0.0 0.0 0.0 0.0 0.0 0.0 0.0 0.0 0.0 0.0 0.0 0.0 0.0 0.0 0.0 3.3 9.7 16.3 23.0 29.8 36.8 43.8 50.8 57.9 65.0 72.0 78.9 85.8 92.5 99.1 105.5 111.8 117.8 123.5
163.6 164.9 165.7 166.0 165.9 165.3 164.2 162.7 160.7 158.3 155.5 152.2 148.5 144.5 140.0 135.2 130.0 124.6 118.8 112.7 106.4 99.9 93.1 86.2 79.1 71.9 64.6 57.3 49.9 42.5 35.1 27.7 20.4 13.3 6.2 0.0 0.0 0.0 0.0 0.0 0.0 0.0 0.0 0.0 0.0 0.0 0.0 0.0 0.0 0.0 0.0 0.0 0.0 0.0 0.0 0.0 0.0 0.0 0.0 0.0 0.0 0.0 0.0 0.0 0.0 0.0 0.0 0.0 0.0 0.0 0.0 0.0 0.0 6.7 13.7 20.9 28.2 35.5 42.9 50.3 57.7 65.1 72.4 79.6 86.7 93.6 100.3 106.8 113.1 119.2
160.8 162.1 162.9 163.3 163.1 162.5 161.4 159.8 157.8 155.2 152.3 148.9 145.0 140.8 136.2 131.1 125.8 120.1 114.0 107.7 101.1 94.3 87.3 80.0 72.7 65.1 57.5 49.9 42.1 34.4 26.7 19.0 11.5 4.0 0.0 0.0 0.0 0.0 0.0 0.0 0.0 0.0 0.0 0.0 0.0 0.0 0.0 0.0 0.0 0.0 0.0 0.0 0.0 0.0 0.0 0.0 0.0 0.0 0.0 0.0 0.0 0.0 0.0 0.0 0.0 0.0 0.0 0.0 0.0 0.0 0.0 0.0 0.0 0.0 4.5 11.9 19.5 27.2 34.9 42.6 50.4 58.0 65.6 73.1 80.5 87.7 94.8 101.6 108.1 114.4
157.6 158.9 159.8 160.1 160.0 159.3 158.2 156.5 154.4 151.8 148.7 145.2 141.2 136.8 132.0 126.8 121.2 115.3 109.0 102.5 95.6 88.5 81.2 73.7 66.1 58.3 50.4 42.4 34.4 26.4 18.4 10.4 2.6 0.0 0.0 0.0 0.0 0.0 0.0 0.0 0.0 0.0 0.0 0.0 0.0 0.0 0.0 0.0 0.0 0.0 0.0 0.0 0.0 0.0 0.0 0.0 0.0 0.0 0.0 0.0 0.0 0.0 0.0 0.0 0.0 0.0 0.0 0.0 0.0 0.0 0.0 0.0 0.0 0.0 0.0 3.1 10.9 18.9 26.9 34.9 42.9 50.9 58.8 66.6 74.2 81.7 89.0 96.1 102.9 109.4
154.1 155.5 156.4 156.7 156.6 155.9 154.7 153.0 150.8 148.1 144.9 141.3 137.2 132.6 127.7 122.3 116.5 110.4 103.9 97.2 90.1 82.8 75.2 67.5 59.6 51.5 43.4 35.1 26.8 18.6 10.3 2.1 0.0 0.0 0.0 0.0 0.0 0.0 0.0 0.0 0.0 0.0 0.0 0.0 0.0 0.0 0.0 0.0 0.0 0.0 0.0 0.0 0.0 0.0 0.0 0.0 0.0 0.0 0.0 0.0 0.0 0.0 0.0 0.0 0.0 0.0 0.0 0.0 0.0 0.0 0.0 0.0 0.0 0.0 0.0 0.0 2.6 10.8 19.1 27.4 35.7 43.9 52.0 60.1 68.0 75.7 83.3 90.6 97.6 104.4
150.5 151.9 152.8 153.2 153.0 152.4 151.1 149.4 147.1 144.4 141.1 137.3 133.1 128.4 123.3 117.8 111.8 105.5 98.9 91.9 84.7 77.1 69.4 61.4 53.3 45.0 36.6 28.1 19.6 11.1 2.6 0.0 0.0 0.0 0.0 0.0 0.0 0.0 0.0 0.0 0.0 0.0 0.0 0.0 0.0 0.0 0.0 0.0 0.0 0.0 0.0 0.0 0.0 0.0 0.0 0.0 0.0 0.0 0.0 0.0 0.0 0.0 0.0 0.0 0.0 0.0 0.0 0.0 0.0 0.0 0.0 0.0 0.0 0.0 0.0 0.0 0.0 3.1 11.6 20.1 28.7 37.1 45.5 53.8 61.9 69.9 77.6 85.1 92.4 99.3
146.9 148.4 149.3 149.7 149.5 148.8 147.6 145.8 143.5 140.6 137.3 133.4 129.1 124.3 119.1 113.4 107.3 100.9 94.1 86.9 79.5 71.8 63.8 55.6 47.3 38.8 30.2 21.5 12.8 4.1 0.0 0.0 0.0 0.0 0.0 0.0 0.0 0.0 0.0 0.0 0.0 0.0 0.0 0.0 0.0 0.0 0.0 0.0 0.0 0.0 0.0 0.0 0.0 0.0 0.0 0.0 0.0 0.0 0.0 0.0 0.0 0.0 0.0 0.0 0.0 0.0 0.0 0.0 0.0 0.0 0.0 0.0 0.0 0.0 0.0 0.0 0.0 0.0 4.6 13.4 22.1 30.8 39.4 47.8 56.2 64.3 72.3 80.0 87.4 94.5
143.5 145.0 146.0 146.4 146.2 145.5 144.2 142.4 140.0 137.1 133.7 129.8 125.3 120.4 115.1 109.3 103.1 96.5 89.6 82.3 74.7 66.8 58.7 50.3 41.8 33.2 24.4 15.5 6.6 0.0 0.0 0.0 0.0 0.0 0.0 0.0 0.0 0.0 0.0 0.0 0.0 0.0 0.0 0.0 0.0 0.0 0.0 0.0 0.0 0.0 0.0 0.0 0.0 0.0 0.0 0.0 0.0 0.0 0.0 0.0 0.0 0.0 0.0 0.0 0.0 0.0 0.0 0.0 0.0 0.0 0.0 0.0 0.0 0.0 0.0 0.0 0.0 0.0 0.0 7.2 16.1 25.0 33.7 42.4 50.9 59.2 67.3 75.2 82.7 90.0
140.4 141.9 142.9 143.3 143.1 142.4 141.1 139.2 136.8 133.9 130.4 126.4 121.9 116.9 111.5 105.6 99.3 92.6 85.5 78.1 70.4 62.4 54.1 45.6 37.0 28.2 19.2 10.2 1.2 0.0 0.0 0.0 0.0 0.0 0.0 0.0 0.0 0.0 0.0 0.0 0.0 0.0 0.0 0.0 0.0 0.0 0.0 0.0 0.0 0.0 0.0 0.0 0.0 0.0 0.0 0.0 0.0 0.0 0.0 0.0 0.0 0.0 0.0 0.0 0.0 0.0 0.0 0.0 0.0 0.0 0.0 0.0 0.0 0.0 0.0 0.0 0.0 0.0 0.0 1.8 10.8 19.8 28.7 37.5 46.2 54.7 62.9 70.9 78.6 86.0
137.6 139.2 140.2 140.6 140.4 139.6 138.3 136.5 134.0 131.0 127.5 123.4 118.9 113.8 108.3 102.4 96.0 89.2 82.0 74.5 66.7 58.6 50.2 41.6 32.8 23.9 14.9 5.7 0.0 0.0 0.0 0.0 0.0 0.0 0.0 0.0 0.0 0.0 0.0 0.0 0.0 0.0 0.0 0.0 0.0 0.0 0.0 0.0 0.0 0.0 0.0 0.0 0.0 0.0 0.0 0.0 0.0 0.0 0.0 0.0 0.0 0.0 0.0 0.0 0.0 0.0 0.0 0.0 0.0 0.0 0.0 0.0 0.0 0.0 0.0 0.0 0.0 0.0 0.0 0.0 6.3 15.5 24.5 33.4 42.2 50.8 59.1 67.2 75.0 82.5
135.4 136.9 137.9 138.3 138.1 137.4 136.1 134.2 131.7 128.7 125.1 121.0 116.4 111.3 105.8 99.7 93.3 86.4 79.2 71.6 63.7 55.5 47.1 38.4 29.5 20.5 11.4 2.2 0.0 0.0 0.0 0.0 0.0 0.0 0.0 0.0 0.0 0.0 0.0 0.0 0.0 0.0 0.0 0.0 0.0 0.0 0.0 0.0 0.0 0.0 0.0 0.0 0.0 0.0 0.0 0.0 0.0 0.0 0.0 0.0 0.0 0.0 0.0 0.0 0.0 0.0 0.0 0.0 0.0 0.0 0.0 0.0 0.0 0.0 0.0 0.0 0.0 0.0 0.0 0.0 2.8 12.0 21.1 30.1 39.0 47.6 56.1 64.2 72.1 79.7
133.6 135.2 136.2 136.6 136.4 135.7 134.3 132.4 129.9 126.9 123.3 119.2 114.6 109.4 103.8 97.8 91.3 84.4 77.1 69.5 61.5 53.3 44.8 36.0 27.1 18.0 8.8 0.0 0.0 0.0 0.0 0.0 0.0 0.0 0.0 0.0 0.0 0.0 0.0 0.0 0.0 0.0 0.0 0.0 0.0 0.0 0.0 0.0 0.0 0.0 0.0 0.0 0.0 0.0 0.0 0.0 0.0 0.0 0.0 0.0 0.0 0.0 0.0 0.0 0.0 0.0 0.0 0.0 0.0 0.0 0.0 0.0 0.0 0.0 0.0 0.0 0.0 0.0 0.0 0.0 0.2 9.4 18.6 27.7 36.6 45.3 53.8 62.0 70.0 77.6
132.5 134.0 135.0 135.4 135.3 134.5 133.2 131.2 128.8 125.7 122.1 118.0 113.3 108.2 102.6 96.5 90.0 83.1 75.8 68.1 60.1 51.9 43.3 34.6 25.6 16.5 7.3 0.0 0.0 0.0 0.0 0.0 0.0 0.0 0.0 0.0 0.0 0.0 0.0 0.0 0.0 0.0 0.0 0.0 0.0 0.0 0.0 0.0 0.0 0.0 0.0 0.0 0.0 0.0 0.0 0.0 0.0 0.0 0.0 0.0 0.0 0.0 0.0 0.0 0.0 0.0 0.0 0.0 0.0 0.0 0.0 0.0 0.0 0.0 0.0 0.0 0.0 0.0 0.0 0.0 0.0 7.9 17.1 26.2 35.1 43.9 52.4 60.7 68.6 76.2
131.9 133.5 134.5 134.9 134.7 134.0 132.6 130.7 128.2 125.2 121.6 117.5 112.8 107.7 102.1 96.0 89.5 82.5 75.2 67.6 59.6 51.3 42.8 34.1 25.1 16.0 6.8 0.0 0.0 0.0 0.0 0.0 0.0 0.0 0.0 0.0 0.0 0.0 0.0 0.0 0.0 0.0 0.0 0.0 0.0 0.0 0.0 0.0 0.0 0.0 0.0 0.0 0.0 0.0 0.0 0.0 0.0 0.0 0.0 0.0 0.0 0.0 0.0 0.0 0.0 0.0 0.0 0.0 0.0 0.0 0.0 0.0 0.0 0.0 0.0 0.0 0.0 0.0 0.0 0.0 0.0 7.4 16.6 25.7 34.6 43.4 51.9 60.1 68.1 75.7
132.0 133.6 134.6 135.0 134.8 134.1 132.7 130.8 128.3 125.3 121.7 117.6 113.0 107.9 102.3 96.2 89.7 82.8 75.5 67.9 60.0 51.7 43.2 34.5 25.6 16.5 7.4 0.0 0.0 0.0 0.0 0.0 0.0 0.0 0.0 0.0 0.0 0.0 0.0 0.0 0.0 0.0 0.0 0.0 0.0 0.0 0.0 0.0 0.0 0.0 0.0 0.0 0.0 0.0 0.0 0.0 0.0 0.0 0.0 0.0 0.0 0.0 0.0 0.0 0.0 0.0 0.0 0.0 0.0 0.0 0.0 0.0 0.0 0.0 0.0 0.0 0.0 0.0 0.0 0.0 0.0 8.0 17.1 26.2 35.1 43.8 52.3 60.5 68.4 76.0
132.7 134.3 135.3 135.7 135.5 134.8 133.4 131.5 129.1 126.1 122.5 118.4 113.8 108.7 103.2 97.2 90.7 83.9 76.7 69.1 61.2 53.0 44.6 35.9 27.1 18.1 8.9 0.0 0.0 0.0 0.0 0.0 0.0 0.0 0.0 0.0 0.0 0.0 0.0 0.0 0.0 0.0 0.0 0.0 0.0 0.0 0.0 0.0 0.0 0.0 0.0 0.0 0.0 0.0 0.0 0.0 0.0 0.0 0.0 0.0 0.0 0.0 0.0 0.0 0.0 0.0 0.0 0.0 0.0 0.0 0.0 0.0 0.0 0.0 0.0 0.0 0.0 0.0 0.0 0.0 0.3 9.5 18.7 27.6 36.5 45.1 53.6 61.7 69.6 77.1
134.1 135.6 136.6 137.0 136.8 136.1 134.7 132.9 130.4 127.4 123.9 119.9 115.3 110.3 104.8 98.8 92.5 85.7 78.5 71.0 63.2 55.1 46.8 38.2 29.5 20.6 11.5 2.4 0.0 0.0 0.0 0.0 0.0 0.0 0.0 0.0 0.0 0.0 0.0 0.0 0.0 0.0 0.0 0.0 0.0 0.0 0.0 0.0 0.0 0.0 0.0 0.0 0.0 0.0 0.0 0.0 0.0 0.0 0.0 0.0 0.0 0.0 0.0 0.0 0.0 0.0 0.0 0.0 0.0 0.0 0.0 0.0 0.0 0.0 0.0 0.0 0.0 0.0 0.0 0.0 3.0 12.1 21.1 30.0 38.8 47.3 55.7 63.8 71.5 79.0
135.9 137.4 138.4 138.8 138.6 137.9 136.6 134.7 132.3 129.4 125.9 121.9 117.4 112.5 107.0 101.2 94.9 88.2 81.2 73.8 66.1 58.1 49.8 41.4 32.7 24.0 15.1 6.1 0.0 0.0 0.0 0.0 0.0 0.0 0.0 0.0 0.0 0.0 0.0 0.0 0.0 0.0 0.0 0.0 0.0 0.0 0.0 0.0 0.0 0.0 0.0 0.0 0.0 0.0 0.0 0.0 0.0 0.0 0.0 0.0 0.0 0.0 0.0 0.0 0.0 0.0 0.0 0.0 0.0 0.0 0.0 0.0 0.0 0.0 0.0 0.0 0.0 0.0 0.0 0.0 6.7 15.6 24.5 33.3 41.9 50.4 58.6 66.6 74.3 81.6
138.2 139.7 140.6 141.0 140.9 140.1 138.9 137.1 134.7 131.8 128.4 124.5 120.1 115.2 109.9 104.1 97.9 91.3 84.4 77.1 69.6 61.7 53.6 45.3 36.8 28.2 19.5 10.6 1.7 0.0 0.0 0.0 0.0 0.0 0.0 0.0 0.0 0.0 0.0 0.0 0.0 0.0 0.0 0.0 0.0 0.0 0.0 0.0 0.0 0.0 0.0 0.0 0.0 0.0 0.0 0.0 0.0 0.0 0.0 0.0 0.0 0.0 0.0 0.0 0.0 0.0 0.0 0.0 0.0 0.0 0.0 0.0 0.0 0.0 0.0 0.0 0.0 0.0 0.0 2.3 11.2 20.0 28.8 37.4 45.9 54.2 62.2 70.1 77.6 84.9
140.9 142.4 143.3 143.7 143.5 142.8 141.5 139.8 137.5 134.6 131.3 127.4 123.1 118.4 113.1 107.5 101.4 95.0 88.2 81.1 73.7 66.0 58.1 50.0 41.6 33.2 24.6 16.0 7.3 0.0 0.0 0.0 0.0 0.0 0.0 0.0 0.0 0.0 0.0 0.0 0.0 0.0 0.0 0.0 0.0 0.0 0.0 0.0 0.0 0.0 0.0 0.0 0.0 0.0 0.0 0.0 0.0 0.0 0.0 0.0 0.0 0.0 0.0 0.0 0.0 0.0 0.0 0.0 0.0 0.0 0.0 0.0 0.0 0.0 0.0 0.0 0.0 0.0 0.0 7.8 16.5 25.2 33.7 42.2 50.5 58.6 66.5 74.2 81.6 88.7
143.8 145.3 146.2 146.5 146.4 145.7 144.5 142.7 140.5 137.7 134.5 130.7 126.5 121.9 116.8 111.3 105.4 99.1 92.5 85.5 78.3 70.8 63.1 55.2 47.1 38.8 30.4 22.0 13.5 5.0 0.0 0.0 0.0 0.0 0.0 0.0 0.0 0.0 0.0 0.0 0.0 0.0 0.0 0.0 0.0 0.0 0.0 0.0 0.0 0.0 0.0 0.0 0.0 0.0 0.0 0.0 0.0 0.0 0.0 0.0 0.0 0.0 0.0 0.0 0.0 0.0 0.0 0.0 0.0 0.0 0.0 0.0 0.0 0.0 0.0 0.0 0.0 0.0 5.6 14.1 22.6 31.0 39.3 47.6 55.7 63.6 71.3 78.8 86.0 92.9
147.0 148.3 149.2 149.6 149.4 148.8 147.6 145.9 143.7 141.0 137.9 134.2 130.1 125.6 120.7 115.3 109.6 103.5 97.1 90.3 83.3 76.0 68.5 60.8 52.9 44.9 36.8 28.6 20.4 12.1 3.9 0.0 0.0 0.0 0.0 0.0 0.0 0.0 0.0 0.0 0.0 0.0 0.0 0.0 0.0 0.0 0.0 0.0 0.0 0.0 0.0 0.0 0.0 0.0 0.0 0.0 0.0 0.0 0.0 0.0 0.0 0.0 0.0 0.0 0.0 0.0 0.0 0.0 0.0 0.0 0.0 0.0 0.0 0.0 0.0 0.0 0.0 4.4 12.7 20.9 29.1 37.3 45.5 53.5 61.3 69.0 76.5 83.8 90.8 97.5
150.1 151.4 152.3 152.6 152.5 151.8 150.7 149.1 146.9 144.4 141.3 137.8 133.8 129.4 124.7 119.5 113.9 108.0 101.8 95.3 88.5 81.5 74.2 66.8 59.2 51.4 43.6 35.6 27.7 19.7 11.7 3.8 0.0 0.0 0.0 0.0 0.0 0.0 0.0 0.0 0.0 0.0 0.0 0.0 0.0 0.0 0.0 0.0 0.0 0.0 0.0 0.0 0.0 0.0 0.0 0.0 0.0 0.0 0.0 0.0 0.0 0.0 0.0 0.0 0.0 0.0 0.0 0.0 0.0 0.0 0.0 0.0 0.0 0.0 0.0 0.0 4.3 12.3 20.2 28.2 36.2 44.1 51.9 59.7 67.3 74.7 82.0 89.0 95.7 102.2
153.1 154.4 155.2 155.6 155.4 154.8 153.7 152.1 150.1 147.6 144.6 141.3 137.5 133.2 128.6 123.7 118.3 112.6 106.7 100.4 93.8 87.1 80.1 72.9 65.6 58.1 50.6 42.9 35.3 27.6 19.9 12.3 4.8 0.0 0.0 0.0 0.0 0.0 0.0 0.0 0.0 0.0 0.0 0.0 0.0 0.0 0.0 0.0 0.0 0.0 0.0 0.0 0.0 0.0 0.0 0.0 0.0 0.0 0.0 0.0 0.0 0.0 0.0 0.0 0.0 0.0 0.0 0.0 0.0 0.0 0.0 0.0 0.0 0.0 0.0 5.3 12.8 20.4 28.1 35.8 43.4 51.0 58.6 66.1 73.4 80.5 87.5 94.3 100.8 107.1
155.9 157.1 157.9 158.2 158.1 157.5 156.4 154.9 153.0 150.6 147.8 144.5 140.9 136.9 132.4 127.7 122.5 117.1 111.4 105.4 99.1 92.6 85.9 79.0 72.0 64.9 57.6 50.3 43.0 35.6 28.3 21.0 13.8 6.7 0.0 0.0 0.0 0.0 0.0 0.0 0.0 0.0 0.0 0.0 0.0 0.0 0.0 0.0 0.0 0.0 0.0 0.0 0.0 0.0 0.0 0.0 0.0 0.0 0.0 0.0 0.0 0.0 0.0 0.0 0.0 0.0 0.0 0.0 0.0 0.0 0.0 0.0 0.0 0.2 7.1 14.3 21.5 28.8 36.1 43.5 50.8 58.1 65.3 72.5 79.5 86.4 93.0 99.5 105.8 111.8
158.3 159.5 160.2 160.5 160.4 159.8 158.8 157.4 155.5 153.2 150.5 147.5 144.0 140.1 135.9 131.4 126.5 121.3 115.9 110.1 104.2 98.0 91.6 85.1 78.4 71.6 64.7 57.7 50.7 43.7 36.7 29.7 22.9 16.1 9.5 3.0 0.0 0.0 0.0 0.0 0.0 0.0 0.0 0.0 0.0 0.0 0.0 0.0 0.0 0.0 0.0 0.0 0.0 0.0 0.0 0.0 0.0 0.0 0.0 0.0 0.0 0.0 0.0 0.0 0.0 0.0 0.0 0.0 0.0 0.0 0.0 0.0 3.4 9.9 16.5 23.3 30.2 37.1 44.1 51.1 58.1 65.1 72.0 78.8 85.5 92.0 98.4 104.6 110.5 116.2
160.1 161.2 161.9 162.2 162.1 161.6 160.6 159.3 157.5 155.3 152.8 149.9 146.6 142.9 138.9 134.6 130.0 125.1 119.9 114.5 108.9 103.0 97.0 90.8 84.4 78.0 71.4 64.9 58.2 51.6 45.0 38.4 31.9 25.5 19.2 13.0 7.0 1.2 0.0 0.0 0.0 0.0 0.0 0.0 0.0 0.0 0.0 0.0 0.0 0.0 0.0 0.0 0.0 0.0 0.0 0.0 0.0 0.0 0.0 0.0 0.0 0.0 0.0 0.0 0.0 0.0 0.0 0.0 0.0 0.0 1.6 7.4 13.4 19.6 25.9 32.3 38.8 45.4 52.0 58.7 65.3 71.9 78.4 84.8 91.2 97.4 103.4 109.2 114.9 120.3
161.3 162.3 163.0 163.3 163.2 162.7 161.8 160.5 158.8 156.8 154.4 151.6 148.5 145.1 141.4 137.3 133.0 128.4 123.5 118.4 113.1 107.6 101.9 96.0 90.1 84.0 77.9 71.7 65.4 59.2 52.9 46.8 40.6 34.6 28.7 22.9 17.3 11.8 6.6 1.5 0.0 0.0 0.0 0.0 0.0 0.0 0.0 0.0 0.0 0.0 0.0 0.0 0.0 0.0 0.0 0.0 0.0 0.0 0.0 0.0 0.0 0.0 0.0 0.0 0.0 0.0 0.0 0.0 1.8 6.9 12.2 17.6 23.3 29.1 35.0 41.0 47.2 53.3 59.6 65.8 72.1 78.3 84.4 90.5 96.4 102.3 107.9 113.4 118.7 123.8
161.7 162.6 163.3 163.5 163.4 162.9 162.1 160.9 159.4 157.5 155.2 152.7 149.8 146.6 143.1 139.3 135.2 130.9 126.4 121.6 116.6 111.5 106.2 100.7 95.2 89.5 83.8 78.0 72.1 66.3 60.5 54.7 49.0 43.4 37.8 32.4 27.2 22.1 17.2 12.5 8.0 3.8 0.0 0.0 0.0 0.0 0.0 0.0 0.0 0.0 0.0 0.0 0.0 0.0 0.0 0.0 0.0 0.0 0.0 0.0 0.0 0.0 0.0 0.0 0.0 0.1 4.0 8.3 12.8 17.5 22.4 27.5 32.8 38.2 43.7 49.4 55.1 60.9 66.7 72.5 78.3 84.1 89.9 95.5 101.1 106.5 111.8 117.0 121.9 126.7
161.1 162.0 162.6 162.8 162.7 162.3 161.5 160.4 159.0 157.2 155.2 152.8 150.1 147.1 143.9 140.4 136.6 132.6 128.4 124.0 119.4 114.7 109.7 104.7 99.5 94.3 89.0 83.6 78.2 72.8 67.4 62.1 56.8 51.6 46.5 41.5 36.6 31.9 27.3 23.0 18.9 14.9 11.3 7.8 4.7 1.8 0.0 0.0 0.0 0.0 0.0 0.0 0.0 0.0 0.0 0.0 0.0 0.0 0.0 0.0 0.0 0.0 2.0 4.9 8.1 11.5 15.2 19.1 23.3 27.6 32.2 36.9 41.8 46.8 51.9 57.1 62.4 67.8 73.2 78.6 84.0 89.3 94.6 99.9 105.0 110.1 115.0 119.7 124.3 128.7
159.5 160.4 160.9 161.1 161.0 160.6 159.9 158.9 157.6 156.0 154.1 151.9 149.4 146.7 143.8 140.5 137.1 133.4 129.6 125.5 121.3 117.0 112.5 107.8 103.1 98.3 93.4 88.5 83.6 78.6 73.7 68.8 63.9 59.1 54.5 49.9 45.4 41.1 36.9 32.9 29.2 25.6 22.2 19.1 16.2 13.6 11.2 9.1 7.3 5.8 4.6 3.7 3.0 2.8 2.8 3.1 3.7 4.6 5.9 7.4 9.2 11.3 13.7 16.4 19.3 22.4 25.8 29.4 33.2 37.2 41.4 45.7 50.2 54.8 59.5 64.2 69.1 74.0 78.9 83.9 88.8 93.8 98.6 103.4 108.1 112.8 117.3 121.6 125.8 129.8
156.9 157.6 158.1 158.3 158.2 157.8 157.2 156.3 155.1 153.6 151.9 149.9 147.7 145.3 142.6 139.7 136.5 133.2 129.7 126.1 122.3 118.3 114.2 110.0 105.8 101.4 97.0 92.5 88.1 83.6 79.1 74.7 70.3 65.9 61.7 57.5 53.5 49.6 45.8 42.2 38.8 35.5 32.5 29.6 27.0 24.6 22.5 20.6 19.0 17.6 16.5 15.7 15.1 14.9 14.9 15.2 15.7 16.6 17.7 19.1 20.7 22.6 24.8 27.2 29.8 32.7 35.7 39.0 42.4 46.1 49.8 53.8 57.8 62.0 66.2 70.6 75.0 79.4 83.9 88.4 92.8 97.3 101.7 106.0 110.3 114.5 118.6 122.5 126.3 130.0
153.0 153.7 154.1 154.3 154.2 153.9 153.3 152.5 151.4 150.1 148.6 146.8 144.8 142.6 140.2 137.6 134.9 131.9 128.8 125.5 122.1 118.6 114.9 111.2 107.4 103.5 99.6 95.6 91.6 87.6 83.6 79.6 75.7 71.9 68.1 64.4 60.7 57.3 53.9 50.7 47.6 44.7 42.0 39.5 37.1 35.0 33.1 31.4 29.9 28.7 27.7 27.0 26.5 26.3 26.3 26.5 27.0 27.8 28.8 30.0 31.5 33.2 35.1 37.3 39.6 42.2 44.9 47.8 50.9 54.1 57.5 61.0 64.6 68.3 72.1 76.0 79.9 83.9 87.9 91.9 95.8 99.8 103.8 107.6 111.4 115.2 118.8 122.3 125.7 129.0
147.9 148.5 148.8 149.0 148.9 148.7 148.1 147.4 146.5 145.4 144.0 142.5 140.7 138.8 136.7 134.4 132.0 129.4 126.7 123.8 120.8 117.7 114.6 111.3 107.9 104.5 101.1 97.6 94.1 90.6 87.1 83.6 80.2 76.8 73.5 70.2 67.1 64.0 61.1 58.2 55.6 53.0 50.6 48.4 46.4 44.5 42.8 41.4 40.1 39.0 38.2 37.5 37.1 36.9 36.9 37.1 37.5 38.2 39.1 40.2 41.5 42.9 44.6 46.5 48.6 50.8 53.2 55.7 58.4 61.3 64.2 67.3 70.4 73.7 77.0 80.4 83.9 87.3 90.8 94.3 97.8 101.3 104.8 108.2 111.5 114.8 117.9 121.0 124.0 126.9
141.5 142.0 142.3 142.5 142.4 142.2 141.7 141.1 140.3 139.4 138.2 136.9 135.4 133.8 132.0 130.0 127.9 125.7 123.4 120.9 118.4 115.7 113.0 110.2 107.4 104.4 101.5 98.5 95.5 92.5 89.5 86.6 83.6 80.7 77.9 75.1 72.4 69.8 67.3 64.9 62.6 60.4 58.4 56.5 54.7 53.1 51.7 50.4 49.3 48.4 47.7 47.1 46.8 46.6 46.6 46.8 47.2 47.7 48.5 49.4 50.5 51.8 53.2 54.8 56.6 58.5 60.5 62.7 65.0 67.4 70.0 72.6 75.3 78.1 80.9 83.8 86.8 89.7 92.7 95.7 98.7 101.7 104.6 107.5 110.4 113.2 115.9 118.6 121.1 123.5
133.9 134.3 134.6 134.7 134.6 134.4 134.1 133.6 132.9 132.1 131.2 130.1 128.8 127.5 126.0 124.4 122.7 120.8 118.9 116.9 114.8 112.6 110.3 108.0 105.6 103.2 100.8 98.3 95.8 93.3 90.9 88.4 86.0 83.6 81.2 78.9 76.7 74.5 72.5 70.5 68.6 66.8 65.1 63.5 62.1 60.7 59.6 58.5 57.6 56.8 56.2 55.8 55.5 55.3 55.3 55.5 55.8 56.3 56.9 57.7 58.6 59.6 60.8 62.1 63.6 65.2 66.9 68.7 70.6 72.6 74.7 76.8 79.1 81.4 83.7 86.1 88.6 91.0 93.5 96.0 98.5 100.9 103.4 105.8 108.1 110.5 112.7 114.9 117.0 119.0
125.0 125.3 125.6 125.6 125.6 125.4 125.2 124.8 124.2 123.6 122.9 122.0 121.0 120.0 118.8 117.5 116.2 114.7 113.2 111.6 109.9 108.2 106.4 104.6 102.7 100.8 98.9 97.0 95.0 93.1 91.1 89.2 87.3 85.4 83.5 81.7 79.9 78.2 76.6 75.0 73.5 72.1 70.8 69.5 68.4 67.4 66.4 65.6 64.9 64.3 63.8 63.4 63.2 63.1 63.1 63.2 63.5 63.8 64.3 64.9 65.6 66.5 67.4 68.5 69.6 70.9 72.2 73.6 75.1 76.7 78.3 80.1 81.8 83.6 85.5 87.4 89.3 91.2 93.2 95.1 97.1 99.0 101.0 102.9 104.7 106.5 108.3 110.0 111.7 113.3
114.9 115.2 115.3 115.4 115.4 115.2 115.0 114.7 114.4 113.9 113.4 112.7 112.0 111.2 110.4 109.5 108.5 107.4 106.3 105.2 103.9 102.7 101.4 100.1 98.7 97.3 95.9 94.5 93.1 91.7 90.2 88.8 87.4 86.1 84.7 83.4 82.1 80.9 79.7 78.5 77.4 76.4 75.4 74.5 73.7 73.0 72.3 71.7 71.2 70.7 70.4 70.1 69.9 69.8 69.9 69.9 70.1 70.4 70.7 71.2 71.7 72.3 73.0 73.8 74.6 75.5 76.5 77.5 78.6 79.8 81.0 82.2 83.5 84.8 86.2 87.5 88.9 90.3 91.8 93.2 94.6 96.0 97.4 98.8 100.2 101.5 102.8 104.0 105.2 106.4
103.7 103.8 103.9 104.0 104.0 103.9 103.8 103.6 103.3 103.1 102.7 102.3 101.9 101.4 100.9 100.3 99.7 99.0 98.3 97.6 96.9 96.1 95.3 94.4 93.6 92.7 91.9 91.0 90.1 89.2 88.3 87.4 86.6 85.7 84.9 84.1 83.3 82.5 81.7 81.0 80.3 79.7 79.1 78.5 78.0 77.5 77.1 76.7 76.4 76.2 75.9 75.8 75.7 75.6 75.6 75.7 75.8 76.0 76.2 76.4 76.8 77.1 77.6 78.1 78.6 79.1 79.7 80.4 81.1 81.8 82.5 83.3 84.1 84.9 85.8 86.6 87.5 88.4 89.3 90.1 91.0 91.9 92.8 93.6 94.5 95.3 96.1 96.9 97.7 98.4
91.4 91.5 91.5 91.5 91.5 91.5 91.4 91.4 91.3 91.2 91.0 90.9 90.7 90.5 90.3 90.1 89.8 89.6 89.3 89.0 88.7 88.4 88.1 87.8 87.4 87.1 86.8 86.4 86.1 85.7 85.4 85.0 84.7 84.4 84.0 83.7 83.4 83.1 82.8 82.5 82.3 82.0 81.8 81.6 81.4 81.2 81.0 80.9 80.7 80.6 80.5 80.5 80.4 80.4 80.4 80.4 80.5 80.5 80.6 80.7 80.9 81.0 81.2 81.4 81.6 81.8 82.0 82.3 82.5 82.8 83.1 83.4 83.7 84.1 84.4 84.7 85.1 85.4 85.8 86.1 86.4 86.8 87.1 87.5 87.8 88.1 88.4 88.7 89.0 89.3
78.2 78.1 78.1 78.1 78.1 78.1 78.1 78.2 78.2 78.3 78.4 78.5 78.5 78.7 78.8 78.9 79.0 79.2 79.3 79.5 79.6 79.8 80.0 80.2 80.4 80.5 80.7 80.9 81.1 81.3 81.5 81.7 81.9 82.1 82.3 82.4 82.6 82.8 83.0 83.1 83.3 83.4 83.5 83.7 83.8 83.9 84.0 84.0 84.1 84.2 84.2 84.3 84.3 84.3 84.3 84.3 84.3 84.2 84.2 84.1 84.0 84.0 83.9 83.8 83.6 83.5 83.4 83.2 83.1 82.9 82.8 82.6 82.4 82.3 82.1 81.9 81.7 81.5 81.3 81.1 80.9 80.7 80.5 80.3 80.2 80.0 79.8 79.6 79.5 79.3
64.1 63.9 63.9 63.8 63.9 63.9 64.0 64.2 64.4 64.6 64.9 65.2 65.6 66.0 66.4 66.9 67.4 67.9 68.5 69.1 69.7 70.4 71.1 71.7 72.4 73.2 73.9 74.6 75.3 76.1 76.8 77.5 78.2 79.0 79.7 80.3 81.0 81.6 82.3 82.8 83.4 83.9 84.4 84.9 85.3 85.7 86.1 86.4 86.6 86.9 87.0 87.2 87.3 87.3 87.3 87.3 87.2 87.0 86.9 86.6 86.4 86.0 85.7 85.3 84.9 84.4 83.9 83.4 82.8 82.2 81.6 81.0 80.3 79.6 78.9 78.2 77.5 76.8 76.0 75.3 74.6 73.8 73.1 72.4 71.7 71.0 70.3 69.7 69.1 68.5
49.3 49.1 49.0 48.9 48.9 49.0 49.2 49.5 49.8 50.2 50.7 51.3 51.9 52.6 53.4 54.2 55.1 56.0 57.0 58.0 59.1 60.2 61.4 62.6 63.8 65.0 66.3 67.6 68.8 70.1 71.4 72.6 73.9 75.1 76.3 77.5 78.6 79.7 80.8 81.8 82.8 83.7 84.6 85.4 86.1 86.8 87.4 88.0 88.4 88.8 89.1 89.4 89.5 89.6 89.6 89.5 89.3 89.1 88.8 88.4 87.9 87.4 86.8 86.1 85.3 84.5 83.7 82.7 81.8 80.7 79.7 78.6 77.4 76.2 75.0 73.8 72.5 71.3 70.0 68.7 67.5 66.2 65.0 63.7 62.5 61.3 60.2 59.1 58.0 56.9
34.0 33.7 33.5 33.4 33.5 33.6 33.9 34.2 34.7 35.3 36.0 36.8 37.7 38.7 39.8 40.9 42.2 43.5 44.9 46.4 47.9 49.5 51.2 52.9 54.6 56.3 58.1 59.9 61.7 63.5 65.3 67.1 68.9 70.6 72.3 74.0 75.6 77.2 78.7 80.2 81.6 82.9 84.1 85.2 86.3 87.2 88.1 88.9 89.5 90.1 90.5 90.9 91.1 91.2 91.2 91.1 90.8 90.5 90.0 89.5 88.8 88.1 87.2 86.2 85.2 84.0 82.8 81.5 80.1 78.6 77.1 75.5 73.9 72.2 70.5 68.8 67.0 65.2 63.4 61.6 59.8 58.0 56.2 54.5 52.8 51.1 49.4 47.8 46.3 44.8
18.4 18.0 17.7 17.6 17.7 17.8 18.2 18.7 19.3 20.0 20.9 22.0 23.1 24.4 25.8 27.3 28.9 30.7 32.5 34.4 36.4 38.4 40.5 42.7 44.9 47.2 49.5 51.8 54.2 56.5 58.8 61.1 63.4 65.7 67.9 70.0 72.1 74.2 76.1 78.0 79.8 81.5 83.1 84.5 85.9 87.1 88.3 89.2 90.1 90.8 91.4 91.8 92.1 92.2 92.2 92.1 91.8 91.3 90.8 90.0 89.2 88.2 87.1 85.8 84.5 83.0 81.4 79.7 77.9 76.0 74.0 72.0 69.9 67.7 65.5 63.3 61.0 58.7 56.3 54.0 51.7 49.4 47.1 44.8 42.6 40.4 38.3 36.2 34.2 32.3
2.5 2.0 1.7 1.6 1.7 1.9 2.3 2.9 3.6 4.6 5.7 6.9 8.3 9.9 11.6 13.5 15.4 17.6 19.8 22.1 24.5 27.1 29.6 32.3 35.0 37.8 40.6 43.4 46.3 49.1 52.0 54.8 57.6 60.4 63.1 65.7 68.3 70.8 73.2 75.5 77.6 79.7 81.7 83.5 85.1 86.6 88.0 89.2 90.2 91.1 91.8 92.3 92.7 92.9 92.9 92.7 92.3 91.8 91.1 90.2 89.1 87.9 86.5 85.0 83.3 81.5 79.6 77.5 75.3 73.0 70.6 68.1 65.5 62.9 60.2 57.4 54.6 51.8 49.0 46.1 43.3 40.4 37.6 34.9 32.1 29.5 26.9 24.4 22.0 19.6
0.0 0.0 0.0 0.0 0.0 0.0 0.0 0.0 0.0 0.0 0.0 0.0 0.0 0.0 0.0 0.0 1.9 4.4 7.0 9.8 12.6 15.6 18.7 21.8 25.0 28.3 31.6 34.9 38.3 41.6 45.0 48.3 51.6 54.9 58.1 61.2 64.2 67.1 70.0 72.7 75.2 77.7 80.0 82.1 84.1 85.8 87.5 88.9 90.1 91.1 91.9 92.6 93.0 93.2 93.2 93.0 92.5 91.9 91.1 90.0 88.8 87.4 85.7 83.9 82.0 79.8 77.5 75.1 72.5 69.8 67.0 64.0 61.0 57.9 54.7 51.4 48.1 44.8 41.4 38.1 34.7 31.4 28.1 24.8 21.6 18.5 15.4 12.4 9.6 6.9
0.0 0.0 0.0 0.0 0.0 0.0 0.0 0.0 0.0 0.0 0.0 0.0 0.0 0.0 0.0 0.0 0.0 0.0 0.0 0.0 0.8 4.2 7.8 11.4 15.1 18.8 22.6 26.4 30.3 34.2 38.0 41.8 45.6 49.3 53.0 56.6 60.1 63.4 66.7 69.8 72.7 75.5 78.2 80.6 82.9 84.9 86.8 88.4 89.8 91.0 91.9 92.6 93.1 93.3 93.3 93.1 92.6 91.9 90.9 89.7 88.3 86.6 84.8 82.7 80.5 78.0 75.4 72.6 69.6 66.5 63.2 59.8 56.4 52.8 49.1 45.4 41.6 37.8 33.9 30.0 26.2 22.4 18.6 14.8 11.1 7.5 4.0 0.6 0.0 0.0
0.0 0.0 0.0 0.0 0.0 0.0 0.0 0.0 0.0 0.0 0.0 0.0 0.0 0.0 0.0 0.0 0.0 0.0 0.0 0.0 0.0 0.0 0.0 1.2 5.3 9.5 13.8 18.1 22.5 26.8 31.2 35.5 39.7 43.9 48.1 52.1 56.0 59.8 63.4 66.9 70.3 73.4 76.4 79.1 81.7 84.0 86.1 87.9 89.5 90.8 91.9 92.7 93.2 93.5 93.5 93.2 92.6 91.8 90.7 89.4 87.8 85.9 83.8 81.5 79.0 76.2 73.2 70.1 66.7 63.2 59.5 55.7 51.8 47.8 43.7 39.5 35.2 30.9 26.5 22.2 17.9 13.5 9.3 5.0 0.9 0.0 0.0 0.0 0.0 0.0
0.0 0.0 0.0 0.0 0.0 0.0 0.0 0.0 0.0 0.0 0.0 0.0 0.0 0.0 0.0 0.0 0.0 0.0 0.0 0.0 0.0 0.0 0.0 0.0 0.0 0.7 5.4 10.2 15.0 19.8 24.6 29.4 34.1 38.8 43.3 47.8 52.2 56.4 60.4 64.3 68.0 71.5 74.7 77.8 80.6 83.2 85.5 87.5 89.3 90.7 91.9 92.8 93.4 93.7 93.7 93.4 92.8 91.8 90.6 89.2 87.4 85.3 83.0 80.4 77.6 74.5 71.2 67.7 64.0 60.1 56.1 51.9 47.5 43.0 38.5 33.8 29.1 24.3 19.5 14.7 9.9 5.1 0.3 0.0 0.0 0.0 0.0 0.0 0.0 0.0
0.0 0.0 0.0 0.0 0.0 0.0 0.0 0.0 0.0 0.0 0.0 0.0 0.0 0.0 0.0 0.0 0.0 0.0 0.0 0.0 0.0 0.0 0.0 0.0 0.0 0.0 0.0 2.7 8.0 13.3 18.5 23.8 28.9 34.0 39.0 43.9 48.7 53.3 57.7 61.9 66.0 69.8 73.4 76.7 79.8 82.6 85.1 87.4 89.3 90.9 92.2 93.2 93.8 94.1 94.1 93.8 93.1 92.1 90.8 89.2 87.2 85.0 82.4 79.6 76.5 73.2 69.6 65.7 61.7 57.4 53.0 48.4 43.6 38.7 33.7 28.6 23.4 18.2 12.9 7.7 2.4 0.0 0.0 0.0 0.0 0.0 0.0 0.0 0.0 0.0
0.0 0.0 0.0 0.0 0.0 0.0 0.0 0.0 0.0 0.0 0.0 0.0 0.0 0.0 0.0 0.0 0.0 0.0 0.0 0.0 0.0 0.0 0.0 0.0 0.0 0.0 0.0 0.0 1.6 7.3 13.0 18.7 24.3 29.8 35.2 40.5 45.7 50.6 55.4 60.0 64.4 68.6 72.4 76.1 79.4 82.4 85.2 87.6 89.6 91.4 92.8 93.9 94.6 94.9 94.9 94.5 93.8 92.7 91.3 89.5 87.4 85.0 82.2 79.2 75.8 72.2 68.3 64.1 59.8 55.1 50.3 45.3 40.2 34.9 29.4 23.9 18.3 12.7 7.0 1.2 0.0 0.0 0.0 0.0 0.0 0.0 0.0 0.0 0.0 0.0
0.0 0.0 0.0 0.0 0.0 0.0 0.0 0.0 0.0 0.0 0.0 0.0 0.0 0.0 0.0 0.0 0.0 0.0 0.0 0.0 0.0 0.0 0.0 0.0 0.0 0.0 0.0 0.0 0.0 2.1 8.2 14.3 20.3 26.2 32.1 37.7 43.3 48.6 53.8 58.7 63.4 67.8 72.0 75.9 79.5 82.7 85.7 88.2 90.5 92.4 93.9 95.0 95.7 96.1 96.1 95.7 94.9 93.8 92.2 90.3 88.1 85.5 82.5 79.2 75.6 71.7 67.6 63.1 58.4 53.4 48.3 42.9 37.4 31.7 25.9 19.9 13.9 7.8 1.7 0.0 0.0 0.0 0.0 0.0 0.0 0.0 0.0 0.0 0.0 0.0
0.0 0.0 0.0 0.0 0.0 0.0 0.0 0.0 0.0 0.0 0.0 0.0 0.0 0.0 0.0 0.0 0.0 0.0 0.0 0.0 0.0 0.0 0.0 0.0 0.0 0.0 0.0 0.0 0.0 0.0 4.3 10.7 17.1 23.4 29.6 35.7 41.6 47.3 52.8 58.0 63.0 67.7 72.2 76.3 80.1 83.6 86.7 89.5 91.9 93.8 95.5 96.7 97.5 97.9 97.8 97.4 96.6 95.4 93.7 91.7 89.3 86.5 83.4 79.9 76.1 71.9 67.4 62.7 57.7 52.4 46.9 41.2 35.3 29.2 23.0 16.7 10.3 3.8 0.0 0.0 0.0 0.0 0.0 0.0 0.0 0.0 0.0 0.0 0.0 0.0
0.0 0.0 0.0 0.0 0.0 0.0 0.0 0.0 0.0 0.0 0.0 0.0 0.0 0.0 0.0 0.0 0.0 0.0 0.0 0.0 0.0 0.0 0.0 0.0 0.0 0.0 0.0 0.0 0.0 0.0 1.2 8.0 14.8 21.5 28.0 34.4 40.7 46.7 52.5 58.1 63.3 68.4 73.0 77.4 81.5 85.1 88.4 91.3 93.9 96.0 97.7 98.9 99.8 100.2 100.2 99.7 98.9 97.6 95.8 93.7 91.2 88.2 84.9 81.2 77.1 72.8 68.0 63.0 57.7 52.1 46.3 40.3 34.0 27.6 21.1 14.4 7.6 0.8 0.0 0.0 0.0 0.0 0.0 0.0 0.0 0.0 0.0 0.0 0.0 0.0
0.0 0.0 0.0 0.0 0.0 0.0 0.0 0.0 0.0 0.0 0.0 0.0 0.0 0.0 0.0 0.0 0.0 0.0 0.0 0.0 0.0 0.0 0.0 0.0 0.0 0.0 0.0 0.0 0.0 0.0 0.0 6.3 13.4 20.5 27.3 34.1 40.6 47.0 53.1 58.9 64.5 69.7 74.7 79.3 83.5 87.4 90.8 93.9 96.5 98.7 100.5 101.9 102.8 103.2 103.2 102.7 101.8 100.4 98.6 96.4 93.7 90.6 87.1 83.2 79.0 74.3 69.4 64.1 58.5 52.7 46.5 40.2 33.6 26.9 20.0 13.0 5.9 0.0 0.0 0.0 0.0 0.0 0.0 0.0 0.0 0.0 0.0 0.0 0.0 0.0
0.0 0.0 0.0 0.0 0.0 0.0 0.0 0.0 0.0 0.0 0.0 0.0 0.0 0.0 0.0 0.0 0.0 0.0 0.0 0.0 0.0 0.0 0.0 0.0 0.0 0.0 0.0 0.0 0.0 0.0 0.0 5.6 13.1 20.4 27.6 34.6 41.5 48.1 54.5 60.6 66.4 71.9 77.1 81.9 86.3 90.3 93.9 97.2 99.9 102.2 104.1 105.5 106.4 106.9 106.9 106.4 105.4 104.0 102.1 99.7 97.0 93.7 90.1 86.0 81.6 76.7 71.5 66.0 60.2 54.1 47.7 41.0 34.2 27.1 19.9 12.6 5.1 0.0 0.0 0.0 0.0 0.0 0.0 0.0 0.0 0.0 0.0 0.0 0.0 0.0
0.0 0.0 0.0 0.0 0.0 0.0 0.0 0.0 0.0 0.0 0.0 0.0 0.0 0.0 0.0 0.0 0.0 0.0 0.0 0.0 0.0 0.0 0.0 0.0 0.0 0.0 0.0 0.0 0.0 0.0 0.0 6.0 13.7 21.3 28.8 36.1 43.2 50.1 56.8 63.1 69.2 74.9 80.3 85.3 89.9 94.1 97.8 101.2 104.0 106.4 108.4 109.8 110.8 111.3 111.3 110.8 109.8 108.3 106.3 103.9 101.0 97.6 93.8 89.6 84.9 79.9 74.5 68.8 62.7 56.3 49.7 42.8 35.7 28.3 20.8 13.2 5.4 0.0 0.0 0.0 0.0 0.0 0.0 0.0 0.0 0.0 0.0 0.0 0.0 0.0
0.0 0.0 0.0 0.0 0.0 0.0 0.0 0.0 0.0 0.0 0.0 0.0 0.0 0.0 0.0 0.0 0.0 0.0 0.0 0.0 0.0 0.0 0.0 0.0 0.0 0.0 0.0 0.0 0.0 0.0 0.0 7.3 15.4 23.3 31.0 38.6 45.9 53.1 59.9 66.5 72.8 78.7 84.3 89.4 94.2 98.6 102.5 105.9 108.9 111.4 113.4 114.9 115.9 116.4 116.4 115.8 114.8 113.3 111.2 108.7 105.7 102.2 98.3 93.9 89.1 83.9 78.3 72.4 66.1 59.5 52.6 45.5 38.1 30.5 22.7 14.8 6.8 0.0 0.0 0.0 0.0 0.0 0.0 0.0 0.0 0.0 0.0 0.0 0.0 0.0
0.0 0.0 0.0 0.0 0.0 0.0 0.0 0.0 0.0 0.0 0.0 0.0 0.0 0.0 0.0 0.0 0.0 0.0 0.0 0.0 0.0 0.0 0.0 0.0 0.0 0.0 0.0 0.0 0.0 0.0 1.4 9.8 18.0 26.2 34.2 42.0 49.6 56.9 64.0 70.8 77.2 83.3 89.0 94.4 99.3 103.8 107.8 111.4 114.4 117.0 119.1 120.6 121.6 122.2 122.1 121.6 120.5 118.9 116.8 114.2 111.1 107.6 103.5 99.0 94.0 88.7 82.9 76.8 70.3 63.5 56.4 49.1 41.5 33.6 25.6 17.5 9.2 0.9 0.0 0.0 0.0 0.0 0.0 0.0 0.0 0.0 0.0 0.0 0.0 0.0
0.0 0.0 0.0 0.0 0.0 0.0 0.0 0.0 0.0 0.0 0.0 0.0 0.0 0.0 0.0 0.0 0.0 0.0 0.0 0.0 0.0 0.0 0.0 0.0 0.0 0.0 0.0 0.0 0.0 0.0 4.6 13.2 21.7 30.0 38.2 46.2 54.0 61.6 68.8 75.8 82.4 88.7 94.6 100.0 105.1 109.7 113.8 117.5 120.6 123.3 125.4 127.0 128.0 128.6 128.5 128.0 126.9 125.3 123.1 120.4 117.2 113.6 109.4 104.8 99.7 94.2 88.3 82.0 75.4 68.4 61.1 53.5 45.7 37.7 29.5 21.1 12.6 4.1 0.0 0.0 0.0 0.0 0.0 0.0 0.0 0.0 0.0 0.0 0.0 0.0
0.0 0.0 0.0 0.0 0.0 0.0 0.0 0.0 0.0 0.0 0.0 0.0 0.0 0.0 0.0 0.0 0.0 0.0 0.0 0.0 0.0 0.0 0.0 0.0 0.0 0.0 0.0 0.0 0.0 0.0 8.8 17.5 26.2 34.8 43.1 51.3 59.3 67.0 74.4 81.6 88.3 94.7 100.8 106.4 111.5 116.2 120.4 124.2 127.4 130.1 132.3 133.9 135.0 135.5 135.5 134.9 133.8 132.1 129.9 127.2 123.9 120.2 115.9 111.2 106.0 100.4 94.3 87.9 81.1 74.0 66.5 58.8 50.8 42.6 34.2 25.6 17.0 8.2 0.0 0.0 0.0 0.0 0.0 0.0 0.0 0.0 0.0 0.0 0.0 0.0
0.0 0.0 0.0 0.0 0.0 0.0 0.0 0.0 0.0 0.0 0.0 0.0 0.0 0.0 0.0 0.0 0.0 0.0 0.0 0.0 0.0 0.0 0.0 0.0 0.0 0.0 0.0 0.0 0.0 4.8 13.8 22.8 31.6 40.3 48.8 57.2 65.3 73.1 80.7 88.0 94.9 101.4 107.5 113.2 118.5 123.3 127.6 131.4 134.6 137.4 139.6 141.3 142.4 142.9 142.9 142.3 141.2 139.5 137.2 134.4 131.1 127.3 123.0 118.1 112.9 107.1 101.0 94.4 87.5 80.2 72.6 64.8 56.6 48.3 39.7 31.0 22.2 13.2 4.3 0.0 0.0 0.0 0.0 0.0 0.0 0.0 0.0 0.0 0.0 0.0
0.0 0.0 0.0 0.0 0.0 0.0 0.0 0.0 0.0 0.0 0.0 0.0 0.0 0.0 0.0 0.0 0.0 0.0 0.0 0.0 0.0 0.0 0.0 0.0 0.0 0.0 0.0 0.0 1.4 10.6 19.7 28.7 37.7 46.5 55.2 63.7 71.9 79.9 87.6 94.9 101.9 108.5 114.8 120.5 125.9 130.7 135.1 139.0 142.3 145.1 147.3 149.0 150.1 150.7 150.7 150.1 148.9 147.2 144.9 142.1 138.7 134.8 130.4 125.5 120.2 114.4 108.1 101.5 94.4 87.1 79.4 71.4 63.1 54.6 46.0 37.1 28.1 19.1 10.0 0.8 0.0 0.0 0.0 0.0 0.0 0.0 0.0 0.0 0.0 0.0
0.0 0.0 0.0 0.0 0.0 0.0 0.0 0.0 0.0 0.0 0.0 0.0 0.0 0.0 0.0 0.0 0.0 0.0 0.0 0.0 0.0 0.0 0.0 0.0 0.0 0.0 0.0 0.0 7.7 17.0 26.2 35.3 44.4 53.3 62.1 70.7 79.0 87.1 94.8 102.3 109.4 116.1 122.4 128.2 133.6 138.5 142.9 146.8 150.2 153.0 155.3 157.0 158.1 158.7 158.7 158.1 156.9 155.2 152.9 150.0 146.6 142.7 138.2 133.3 127.8 122.0 115.6 108.9 101.8 94.4 86.6 78.5 70.1 61.5 52.8 43.8 34.7 25.6 16.4 7.1 0.0 0.0 0.0 0.0 0.0 0.0 0.0 0.0 0.0 0.0
0.0 0.0 0.0 0.0 0.0 0.0 0.0 0.0 0.0 0.0 0.0 0.0 0.0 0.0 0.0 0.0 0.0 0.0 0.0 0.0 0.0 0.0 0.0 0.0 0.0 0.0 0.0 5.3 14.6 23.9 33.2 42.5 51.6 60.6 69.5 78.1 86.5 94.6 102.5 110.0 117.1 123.8 130.2 136.1 141.5 146.5 150.9 154.9 158.3 161.1 163.4 165.1 166.2 166.8 166.8 166.2 165.0 163.3 160.9 158.0 154.6 150.7 146.2 141.2 135.7 129.8 123.4 116.6 109.5 102.0 94.1 85.9 77.5 68.9 60.0 51.0 41.9 32.6 23.3 14.0 4.7 0.0 0.0 0.0 0.0 0.0 0.0 0.0 0.0 0.0
0.0 0.0 0.0 0.0 0.0 0.0 0.0 0.0 0.0 0.0 0.0 0.0 0.0 0.0 0.0 0.0 0.0 0.0 0.0 0.0 0.0 0.0 0.0 0.0 0.0 0.0 3.4 12.7 22.0 31.4 40.7 50.0 59.2 68.2 77.1 85.8 94.2 102.4 110.2 117.8 124.9 131.7 138.1 144.0 149.5 154.5 158.9 162.9 166.3 169.1 171.4 173.2 174.3 174.9 174.9 174.3 173.1 171.3 169.0 166.1 162.6 158.6 154.1 149.1 143.6 137.7 131.3 124.5 117.3 109.7 101.8 93.6 85.2 76.5 67.6 58.6 49.4 40.1 30.8 21.4 12.0 2.7 0.0 0.0 0.0 0.0 0.0 0.0 0.0 0.0
0.0 0.0 0.0 0.0 0.0 0.0 0.0 0.0 0.0 0.0 0.0 0.0 0.0 0.0 0.0 0.0 0.0 0.0 0.0 0.0 0.0 0.0 0.0 0.0 0.0 1.8 11.0 20.3 29.7 39.1 48.4 57.7 66.9 75.9 84.8 93.5 102.0 110.1 118.0 125.6 132.7 139.5 145.9 151.8 157.3 162.3 166.8 170.7 174.1 177.0 179.3 181.0 182.2 182.8 182.7 182.1 180.9 179.2 176.8 173.9 170.5 166.5 162.0 157.0 151.5 145.5 139.1 132.3 125.1 117.5 109.6 101.4 93.0 84.3 75.4 66.3 57.1 47.8 38.4 29.1 19.7 10.4 1.2 0.0 0.0 0.0 0.0 0.0 0.0 0.0
0.0 0.0 0.0 0.0 0.0 0.0 0.0 0.0 0.0 0.0 0.0 0.0 0.0 0.0 0.0 0.0 0.0 0.0 0.0 0.0 0.0 0.0 0.0 0.0 0.6 9.7 18.9 28.2 37.5 46.9 56.2 65.5 74.6 83.7 92.6 101.2 109.7 117.8 125.7 133.2 140.4 147.2 153.5 159.4 164.9 169.9 174.3 178.3 181.7 184.5 186.8 188.6 189.7 190.3 190.3 189.7 188.5 186.7 184.4 181.5 178.0 174.1 169.6 164.6 159.1 153.1 146.7 139.9 132.7 125.2 117.3 109.1 100.7 92.0 83.1 74.1 64.9 55.6 46.3 36.9 27.6 18.3 9.1 0.0 0.0 0.0 0.0 0.0 0.0 0.0
0.0 0.0 0.0 0.0 0.0 0.0 0.0 0.0 0.0 0.0 0.0 0.0 0.0 0.0 0.0 0.0 0.0 0.0 0.0 0.0 0.0 0.0 0.0 0.0 8.6 17.7 26.8 36.1 45.4 54.7 63.9 73.2 82.3 91.3 100.1 108.7 117.1 125.2 133.0 140.5 147.7 154.4 160.7 166.6 172.0 177.0 181.4 185.4 188.7 191.6 193.9 195.6 196.7 197.3 197.3 196.7 195.5 193.7 191.4 188.5 185.1 181.2 176.7 171.7 166.2 160.3 154.0 147.2 140.1 132.5 124.7 116.6 108.2 99.5 90.7 81.7 72.6 63.3 54.1 44.8 35.5 26.2 17.1 8.1 0.0 0.0 0.0 0.0 0.0 0.0
0.0 0.0 0.0 0.0 0.0 0.0 0.0 0.0 0.0 0.0 0.0 0.0 0.0 0.0 0.0 0.0 0.0 0.0 0.0 0.0 0.0 0.0 0.0 7.8 16.6 25.6 34.7 43.8 53.0 62.3 71.5 80.6 89.6 98.6 107.3 115.8 124.2 132.2 139.9 147.4 154.4 161.1 167.4 173.2 178.6 183.5 187.9 191.8 195.2 198.0 200.2 201.9 203.1 203.6 203.6 203.0 201.8 200.1 197.8 195.0 191.6 187.6 183.2 178.3 172.9 167.0 160.7 154.0 146.9 139.5 131.7 123.6 115.3 106.7 98.0 89.1 80.0 70.9 61.7 52.4 43.2 34.1 25.0 16.1 7.3 0.0 0.0 0.0 0.0 0.0
0.0 0.0 0.0 0.0 0.0 0.0 0.0 0.0 0.0 0.0 0.0 0.0 0.0 0.0 0.0 0.0 0.0 0.0 0.0 0.0 0.0 0.0 7.2 15.8 24.4 33.3 42.3 51.3 60.4 69.5 78.6 87.6 96.6 105.4 114.0 122.4 130.6 138.6 146.2 153.6 160.6 167.2 173.4 179.1 184.4 189.3 193.6 197.5 200.8 203.6 205.8 207.5 208.6 209.2 209.1 208.5 207.4 205.7 203.4 200.6 197.2 193.4 189.0 184.1 178.8 173.0 166.7 160.1 153.1 145.8 138.1 130.1 121.9 113.4 104.8 96.0 87.0 78.0 68.9 59.8 50.7 41.7 32.7 23.9 15.2 6.7 0.0 0.0 0.0 0.0
0.0 0.0 0.0 0.0 0.0 0.0 0.0 0.0 0.0 0.0 0.0 0.0 0.0 0.0 0.0 0.0 0.0 0.0 0.0 0.0 0.0 6.8 15.0 23.3 31.9 40.6 49.4 58.3 67.3 76.3 85.2 94.1 102.9 111.5 120.0 128.4 136.4 144.3 151.8 159.0 165.9 172.4 178.5 184.2 189.4 194.1 198.4 202.2 205.5 208.2 210.4 212.1 213.2 213.7 213.7 213.1 212.0 210.3 208.1 205.3 202.0 198.2 193.9 189.1 183.8 178.1 172.0 165.4 158.6 151.3 143.8 135.9 127.8 119.5 111.0 102.3 93.5 84.6 75.7 66.7 57.8 48.9 40.0 31.3 22.8 14.4 6.3 0.0 0.0 0.0
0.0 0.0 0.0 0.0 0.0 0.0 0.0 0.0 0.0 0.0 0.0 0.0 0.0 0.0 0.0 0.0 0.0 0.0 0.0 0.0 6.5 14.3 22.3 30.5 38.9 47.4 56.1 64.8 73.6 82.4 91.1 99.9 108.5 117.0 125.3 133.5 141.4 149.1 156.5 163.5 170.3 176.6 182.6 188.2 193.3 198.0 202.2 205.9 209.1 211.8 213.9 215.6 216.6 217.2 217.2 216.6 215.5 213.8 211.6 208.9 205.7 201.9 197.7 193.0 187.8 182.2 176.2 169.8 163.1 156.0 148.6 140.9 132.9 124.8 116.4 107.9 99.3 90.6 81.8 73.0 64.2 55.5 46.8 38.3 29.9 21.7 13.7 6.0 0.0 0.0
0.0 0.0 0.0 0.0 0.0 0.0 0.0 0.0 0.0 0.0 0.0 0.0 0.0 0.0 0.0 0.0 0.0 0.0 0.0 6.3 13.6 21.2 29.0 37.0 45.2 53.6 62.0 70.6 79.1 87.7 96.3 104.8 113.2 121.5 129.7 137.6 145.4 152.9 160.1 167.0 173.6 179.8 185.7 191.1 196.1 200.7 204.8 208.4 211.5 214.2 216.3 217.9 218.9 219.4 219.4 218.9 217.8 216.2 214.0 211.4 208.2 204.5 200.4 195.8 190.8 185.3 179.4 173.2 166.6 159.6 152.4 144.9 137.1 129.2 121.0 112.7 104.3 95.7 87.2 78.6 70.0 61.5 53.0 44.7 36.5 28.5 20.7 13.1 5.8 0.0
0.0 0.0 0.0 0.0 0.0 0.0 0.0 0.0 0.0 0.0 0.0 0.0 0.0 0.0 0.0 0.0 0.0 0.0 6.1 12.9 20.0 27.4 35.0 42.8 50.8 59.0 67.2 75.5 83.8 92.2 100.5 108.8 117.0 125.1 133.0 140.8 148.3 155.6 162.6 169.4 175.8 181.8 187.5 192.8 197.7 202.1 206.1 209.6 212.7 215.2 217.3 218.8 219.9 220.4 220.4 219.8 218.8 217.2 215.1 212.5 209.4 205.9 201.9 197.4 192.5 187.2 181.4 175.4 168.9 162.2 155.1 147.8 140.3 132.5 124.6 116.5 108.3 100.0 91.7 83.3 74.9 66.6 58.4 50.3 42.3 34.5 26.9 19.6 12.5 5.7
0.0 0.0 0.0 0.0 0.0 0.0 0.0 0.0 0.0 0.0 0.0 0.0 0.0 0.0 0.0 0.0 0.0 5.9 12.3 18.9 25.8 32.9 40.3 47.9 55.6 63.5 71.5 79.5 87.6 95.7 103.8 111.8 119.8 127.6 135.3 142.8 150.1 157.2 164.0 170.5 176.7 182.6 188.1 193.2 197.9 202.2 206.1 209.5 212.5 215.0 216.9 218.4 219.4 219.9 219.9 219.4 218.4 216.8 214.8 212.3 209.3 205.9 202.0 197.6 192.9 187.7 182.2 176.3 170.1 163.5 156.7 149.6 142.3 134.8 127.1 119.2 111.3 103.3 95.2 87.1 79.0 70.9 63.0 55.1 47.4 39.8 32.5 25.3 18.4 11.8
0.0 0.0 0.0 0.0 0.0 0.0 0.0 0.0 0.0 0.0 0.0 0.0 0.0 0.0 0.0 0.4 5.8 11.6 17.7 24.0 30.7 37.6 44.7 52.0 59.5 67.1 74.8 82.5 90.3 98.2 106.0 113.7 121.4 128.9 136.3 143.6 150.6 157.4 164.0 170.3 176.3 182.0 187.3 192.2 196.8 200.9 204.7 208.0 210.8 213.2 215.1 216.6 217.5 218.0 218.0 217.5 216.5 215.0 213.1 210.7 207.8 204.5 200.7 196.5 191.9 186.9 181.6 175.9 169.9 163.6 157.0 150.2 143.1 135.9 128.4 120.9 113.2 105.5 97.7 89.8 82.0 74.3 66.6 59.0 51.5 44.2 37.1 30.3 23.6 17.3
0.0 0.0 0.0 0.0 0.0 0.0 0.0 0.0 0.0 0.0 0.0 0.0 0.0 0.0 0.7 5.6 10.8 16.4 22.2 28.4 34.8 41.4 48.2 55.2 62.4 69.7 77.1 84.5 92.0 99.5 107.0 114.5 121.8 129.1 136.2 143.1 149.9 156.5 162.8 168.8 174.6 180.0 185.1 189.9 194.2 198.2 201.8 205.0 207.7 210.0 211.8 213.2 214.1 214.6 214.6 214.1 213.2 211.7 209.9 207.5 204.8 201.6 198.0 194.0 189.6 184.8 179.7 174.2 168.4 162.4 156.0 149.5 142.7 135.7 128.6 121.3 114.0 106.5 99.0 91.5 84.0 76.6 69.2 61.9 54.8 47.8 40.9 34.3 28.0 21.8
0.0 0.0 0.0 0.0 0.0 0.0 0.0 0.0 0.0 0.0 0.0 0.0 0.0 1.1 5.4 10.1 15.0 20.3 25.9 31.8 37.9 44.2 50.7 57.4 64.3 71.3 78.3 85.4 92.6 99.8 106.9 114.0 121.1 128.0 134.8 141.4 147.9 154.1 160.2 165.9 171.4 176.6 181.5 186.0 190.2 194.0 197.5 200.5 203.1 205.3 207.1 208.4 209.3 209.7 209.7 209.2 208.3 206.9 205.2 202.9 200.3 197.3 193.8 190.0 185.8 181.2 176.3 171.1 165.6 159.8 153.7 147.5 141.0 134.3 127.5 120.6 113.6 106.5 99.3 92.1 85.0 77.9 70.8 63.8 57.0 50.3 43.8 37.5 31.4 25.6
0.0 0.0 0.0 0.0 0.0 0.0 0.0 0.0 0.0 0.0 0.0 0.0 1.4 5.2 9.2 13.7 18.4 23.4 28.7 34.3 40.1 46.1 52.3 58.7 65.2 71.8 78.5 85.3 92.1 98.9 105.7 112.4 119.1 125.7 132.1 138.4 144.6 150.5 156.2 161.7 166.9 171.9 176.5 180.8 184.8 188.4 191.7 194.5 197.0 199.1 200.8 202.0 202.9 203.3 203.3 202.8 202.0 200.7 199.0 196.9 194.4 191.5 188.2 184.5 180.5 176.2 171.6 166.6 161.4 155.9 150.1 144.2 138.0 131.7 125.2 118.7 112.0 105.2 98.4 91.6 84.8 78.1 71.4 64.7 58.3 51.9 45.7 39.7 33.9 28.4
0.0 0.0 0.0 0.0 0.0 0.0 0.0 0.0 0.0 0.0 0.0 1.7 4.9 8.4 12.3 16.4 20.9 25.7 30.7 35.9 41.4 47.1 52.9 58.9 65.0 71.3 77.6 84.0 90.4 96.8 103.3 109.6 115.9 122.1 128.2 134.2 140.0 145.6 151.0 156.2 161.1 165.7 170.1 174.2 177.9 181.4 184.4 187.1 189.5 191.4 193.0 194.2 195.0 195.4 195.4 195.0 194.1 192.9 191.3 189.3 187.0 184.2 181.1 177.7 173.9 169.8 165.5 160.8 155.8 150.6 145.2 139.6 133.8 127.8 121.7 115.5 109.2 102.8 96.4 90.0 83.6 77.2 70.9 64.6 58.5 52.5 46.7 41.0 35.6 30.3
0.0 0.0 0.0 0.0 0.0 0.0 0.0 0.0 0.0 0.0 1.9 4.6 7.6 10.9 14.5 18.4 22.6 27.0 31.7 36.6 41.8 47.1 52.6 58.2 63.9 69.8 75.7 81.7 87.7 93.7 99.7 105.7 111.6 117.4 123.2 128.7 134.2 139.4 144.5 149.3 153.9 158.3 162.4 166.2 169.7 172.9 175.8 178.4 180.5 182.4 183.9 185.0 185.7 186.1 186.1 185.7 184.9 183.8 182.3 180.4 178.2 175.6 172.7 169.5 166.0 162.1 158.0 153.7 149.0 144.2 139.1 133.8 128.4 122.8 117.1 111.2 105.3 99.4 93.3 87.3 81.3 75.3 69.4 63.6 57.8 52.2 46.7 41.4 36.3 31.4
0.0 0.0 0.0 0.0 0.0 0.0 0.0 0.0 0.3 2.1 4.3 6.7 9.5 12.6 15.9 19.6 23.5 27.6 32.0 36.5 41.3 46.2 51.3 56.6 61.9 67.3 72.9 78.4 84.0 89.6 95.2 100.7 106.2 111.6 116.9 122.1 127.2 132.1 136.8 141.3 145.6 149.6 153.4 157.0 160.2 163.2 165.9 168.3 170.3 172.0 173.4 174.4 175.1 175.4 175.4 175.1 174.4 173.3 171.9 170.2 168.1 165.7 163.0 160.0 156.8 153.2 149.4 145.3 141.0 136.5 131.8 126.9 121.8 116.6 111.3 105.9 100.4 94.8 89.2 83.6 78.1 72.5 67.0 61.6 56.2 51.0 45.9 41.0 36.2 31.7
0.2 0.0 0.0 0.0 0.0 0.0 0.0 0.9 2.3 3.9 5.9 8.2 10.7 13.6 16.7 20.0 23.6 27.4 31.4 35.6 40.0 44.6 49.3 54.1 59.0 64.0 69.1 74.2 79.4 84.5 89.7 94.8 99.8 104.8 109.7 114.5 119.1 123.6 128.0 132.1 136.1 139.8 143.3 146.6 149.6 152.3 154.8 157.0 158.8 160.4 161.7 162.6 163.3 163.6 163.6 163.2 162.6 161.6 160.3 158.7 156.8 154.6 152.2 149.4 146.4 143.1 139.6 135.8 131.9 127.7 123.3 118.8 114.2 109.4 104.5 99.5 94.4 89.3 84.2 79.0 73.9 68.8 63.7 58.7 53.8 49.0 44.3 39.7 35.4 31.2
1.8 1.0 0.5 0.3 0.4 0.8 1.5 2.4 3.7 5.2 7.0 9.1 11.4 14.0 16.8 19.8 23.1 26.6 30.2 34.1 38.1 42.2 46.5 50.9 55.4 59.9 64.5 69.2 73.9 78.6 83.3 87.9 92.5 97.1 101.5 105.9 110.1 114.2 118.2 121.9 125.5 128.9 132.1 135.1 137.8 140.3 142.6 144.6 146.3 147.7 148.9 149.7 150.3 150.6 150.6 150.3 149.7 148.8 147.6 146.2 144.4 142.5 140.2 137.7 134.9 131.9 128.7 125.3 121.7 117.9 114.0 109.8 105.6 101.2 96.8 92.2 87.6 83.0 78.3 73.6 68.9 64.2 59.6 55.1 50.6 46.2 41.9 37.8 33.8 30.0
2.9 2.2 1.8 1.6 1.7 2.0 2.6 3.5 4.6 6.0 7.6 9.5 11.5 13.9 16.4 19.1 22.1 25.2 28.5 31.9 35.5 39.2 43.1 47.0 51.1 55.2 59.3 63.5 67.7 71.9 76.1 80.3 84.5 88.5 92.5 96.5 100.3 103.9 107.5 110.9 114.1 117.2 120.1 122.7 125.2 127.4 129.4 131.2 132.8 134.1 135.1 135.9 136.4 136.6 136.6 136.4 135.8 135.0 134.0 132.7 131.1 129.3 127.3 125.0 122.6 119.9 117.0 113.9 110.7 107.3 103.7 100.0 96.2 92.3 88.3 84.2 80.1 75.9 71.7 67.4 63.2 59.0 54.9 50.8 46.8 42.8 39.0 35.3 31.7 28.3
